X: 128
T: No_85_Song_when_Pipe_is_Lighted.krn
N: Derived from No_85_Song_when_Pipe_is_Lighted.krn
%%abc-version 2.0
%%abcx-abcm2ps-target-version 5.9.1 (29 Sep 2008)
%%abc-creator hum2abc beta
%%abcx-conversion-date 2019/03/15 08:35:45
%%humdrum-veritas 3788857102
%%humdrum-veritas-data 339487598
%%linebreak <none>
%%barnumbers 0
L: 1/8
M: 3/4
K: Ab clef=bass
[K:clef=bass][M:3/4]EE (3CCC CC/ z/ | 
CC (3CCC CG,/ z/ | 
EE (3CCC CC/ z/ | 
CC (3CCC CG,/ z/ ]|:  
(3CCC (3CCC (3CCG, ||  
[M:2/4]F,F, F,G, | 
F,F, (3F,F,F, ||  
[M:3/4]E,E, E,3/C,/ C,C,/ z/ | 
E,E, (3E,E,E, E,/E,/E,/E,/ ||  
[M:2/4]C,3/C,/ C,C, | 
C,4 | 
C,2z2 :|]  
C,4 | 
C, z EE | 
CC C/C/C/C/ | 
CC EE | 
[M:3/4]CC C/C/C/C/C2 ]|:  
[M:2/4]CB, A,A, ||  
[M:3/4]B,B, CB,A,2 | 
F,F, F,/F,/F,/F,/ F,F,/ z/ ||  
[M:2/4]A,A, F,F, ||  
[M:3/4]A,F, F,/F,/F,/F,/ F,C,/ z/ ||  
[M:2/4]F,4- | 
F,3/C,/C,2 | 
CC/C/ CC :|]  



